images/TXL.svg

<svg height="250" viewBox="0 0 250 250" width="250" xmlns="http://www.w3.org/2000/svg"><path d="m204.371094 125c19.023437-20.230469 29.441406-46.324219 29.441406-74.253906 0-7.328125-.824219-14.894532-2.445312-22.488282l-1.683594-7.894531-7.894532-1.6875c-7.589843-1.621093-15.15625-2.445312-22.496093-2.445312-27.144531 0-52.546875 9.84375-72.53125 27.859375-.378907.355468-1.554688 1.425781-1.761719 1.617187-20.242188-19.046875-46.347656-29.480469-74.292969-29.480469-7.320312 0-14.890625.824219-22.492187 2.449219l-7.898438 1.6875-1.683594 7.894531c-1.621093 7.601563-2.445312 15.167969-2.445312 22.488282 0 27.929687 10.417969 54.019531 29.441406 74.25h-.003906c-19.023438 20.234375-29.441406 46.324218-29.441406 74.253906 0 7.328125.824218 14.894531 2.445312 22.488281l1.683594 7.894531 7.898438 1.6875c7.585937 1.621094 15.15625 2.445313 22.492187 2.445313 27.144531 0 52.550781-9.84375 72.53125-27.859375.378906-.351562 1.554687-1.425781 1.761719-1.617188 20.242187 19.050782 46.351562 29.480469 74.292968 29.480469 7.324219 0 14.890626-.824219 22.492188-2.449219l7.894531-1.6875 1.6875-7.894531c1.621094-7.601562 2.441407-15.167969 2.441407-22.484375.003906-27.929687-10.414063-54.019531-29.433594-74.253906zm4.519531 74.253906c0 2.957032-.179687 5.988282-.539063 9.058594-3.070312.355469-6.097656.539062-9.058593.539062-22.117188 0-42.75-8.488281-58.539063-23.960937 6.140625-9.585937 10.789063-20.027344 13.628906-31.070313l-24.132812-6.207031c-3.804688 14.777344-11.757812 28.261719-22.976562 39.128907-15.515626 14.285156-35.363282 22.105468-56.570313 22.105468-2.964844 0-5.992187-.179687-9.0625-.535156-.355469-3.070312-.535156-6.097656-.535156-9.0625 0-23.363281 9.460937-45.085938 26.636719-61.171875l13.09375-13.082031-13.09375-13.082032c-17.175782-16.082031-26.636719-37.804687-26.636719-61.171874 0-2.960938.179687-5.992188.539062-9.058594 3.070313-.359375 6.097657-.539063 9.058594-.539063 22.117187 0 42.75 8.484375 58.539063 23.960938-6.140626 9.582031-10.789063 20.027343-13.628907 31.066406l24.132813 6.210937c3.808594-14.78125 11.757812-28.265624 22.980468-39.128906 15.511719-14.289062 35.359376-22.105468 56.566407-22.105468 2.964843 0 5.992187.175781 9.0625.535156.355469 3.066406.535156 6.09375.535156 9.0625 0 23.363281-9.457031 45.085937-26.632813 61.167968l-13.097656 13.082032 13.097656 13.082031c17.175782 16.085937 26.632813 37.8125 26.632813 61.175781zm0 0" fill="#0050ff"/></svg>

<!-- Generator: Adobe Illustrator 24.2.1, SVG Export Plug-In . SVG Version: 6.00 Build 0)  -->
<svg xmlns="http://www.w3.org/2000/svg" xmlns:xlink="http://www.w3.org/1999/xlink" width="250px" height="250px" viewBox="0 0 250 250" version="1.1">
<g id="surface1">
<path style=" stroke:none;fill-rule:nonzero;fill:rgb(0%,31.37255%,100%);fill-opacity:1;" d="M 204.371094 125 C 223.394531 104.769531 233.8125 78.675781 233.8125 50.746094 C 233.8125 43.417969 232.988281 35.851562 231.367188 28.257812 L 229.683594 20.363281 L 221.789062 18.675781 C 214.199219 17.054688 206.632812 16.230469 199.292969 16.230469 C 172.148438 16.230469 146.746094 26.074219 126.761719 44.089844 C 126.382812 44.445312 125.207031 45.515625 125 45.707031 C 104.757812 26.660156 78.652344 16.226562 50.707031 16.226562 C 43.386719 16.226562 35.816406 17.050781 28.214844 18.675781 L 20.316406 20.363281 L 18.632812 28.257812 C 17.011719 35.859375 16.1875 43.425781 16.1875 50.746094 C 16.1875 78.675781 26.605469 104.765625 45.628906 124.996094 L 45.625 124.996094 C 26.601562 145.230469 16.183594 171.320312 16.183594 199.25 C 16.183594 206.578125 17.007812 214.144531 18.628906 221.738281 L 20.3125 229.632812 L 28.210938 231.320312 C 35.796875 232.941406 43.367188 233.765625 50.703125 233.765625 C 77.847656 233.765625 103.253906 223.921875 123.234375 205.90625 C 123.613281 205.554688 124.789062 204.480469 124.996094 204.289062 C 145.238281 223.339844 171.347656 233.769531 199.289062 233.769531 C 206.613281 233.769531 214.179688 232.945312 221.78125 231.320312 L 229.675781 229.632812 L 231.363281 221.738281 C 232.984375 214.136719 233.804688 206.570312 233.804688 199.253906 C 233.808594 171.324219 223.390625 145.234375 204.371094 125 Z M 208.890625 199.253906 C 208.890625 202.210938 208.710938 205.242188 208.351562 208.3125 C 205.28125 208.667969 202.253906 208.851562 199.292969 208.851562 C 177.175781 208.851562 156.542969 200.363281 140.753906 184.890625 C 146.894531 175.304688 151.542969 164.863281 154.382812 153.820312 L 130.25 147.613281 C 126.445312 162.390625 118.492188 175.875 107.273438 186.742188 C 91.757812 201.027344 71.910156 208.847656 50.703125 208.847656 C 47.738281 208.847656 44.710938 208.667969 41.640625 208.3125 C 41.285156 205.242188 41.105469 202.214844 41.105469 199.25 C 41.105469 175.886719 50.566406 154.164062 67.742188 138.078125 L 80.835938 124.996094 L 67.742188 111.914062 C 50.566406 95.832031 41.105469 74.109375 41.105469 50.742188 C 41.105469 47.78125 41.285156 44.75 41.644531 41.683594 C 44.714844 41.324219 47.742188 41.144531 50.703125 41.144531 C 72.820312 41.144531 93.453125 49.628906 109.242188 65.105469 C 103.101562 74.6875 98.453125 85.132812 95.613281 96.171875 L 119.746094 102.382812 C 123.554688 87.601562 131.503906 74.117188 142.726562 63.253906 C 158.238281 48.964844 178.085938 41.148438 199.292969 41.148438 C 202.257812 41.148438 205.285156 41.324219 208.355469 41.683594 C 208.710938 44.75 208.890625 47.777344 208.890625 50.746094 C 208.890625 74.109375 199.433594 95.832031 182.257812 111.914062 L 169.160156 124.996094 L 182.257812 138.078125 C 199.433594 154.164062 208.890625 175.890625 208.890625 199.253906 Z M 208.890625 199.253906 "/>
</g>
</svg>
